X:62
T:Gamle skor
R:sl-polska
A:Gotland
Z:id:hn-sp-62
M:3/4
L:1/16
K:Ddor
A3^c d2c2 d2e2 | f3f d2d2 =c2c2 | e2ed =c2cB A2AB | cBA^G G2A2 A4 :|
w:Ja' har dan-set ut* min-e gam-le skor
|: f3e f2g2 a2a2 | gage =c2e2 g4 | f3e f2g2 a2a2 | gage =c2e2 g4 |
f3f d2d2 =c2c2 | e2ed =c2cB A2AB | cBA^G G2A2 A4 :|
